icons/blood-two-color.svg

<?xml version="1.0" encoding="UTF-8"?><svg id="uuid-61556334-cf10-4e54-84b8-105d765345fc" xmlns="http://www.w3.org/2000/svg" viewBox="0 0 50 50"><path d="M32.16,28.52c-1.54-.2-3.14-.31-4.74-.31-3.07,0-6.13,.39-8.84,1.12-6.34,1.72-10.28,5.05-10.28,8.7,0,5.41,8.58,9.82,19.12,9.82s19.12-4.4,19.12-9.82c0-4.48-5.91-8.39-14.38-9.51Z" fill="#ffcd00"/><path d="M14.99,11.98h0c-2.52,0-4.94,.45-7,1.3-3.25,1.34-5.19,3.5-5.19,5.78,0,3.9,5.47,7.08,12.19,7.08s12.19-3.17,12.19-7.08-5.47-7.08-12.19-7.08Z" fill="#ffcd00"/><path d="M42.27,5.11c-.92-.14-1.87-.21-2.82-.21h0c-5.7,0-10.52,2.54-10.52,5.54s4.82,5.54,10.52,5.54,10.52-2.54,10.52-5.54c0-2.47-3.16-4.66-7.69-5.34Z" fill="#ffcd00"/><path d="M30.54,25.78c-1.59-.21-3.23-.32-4.87-.32-3.21,0-6.27,.39-9.11,1.16-6.8,1.84-11.02,5.54-11.02,9.66,0,5.96,9.03,10.82,20.12,10.82s20.12-4.85,20.12-10.82c0-4.99-6.27-9.31-15.25-10.5Zm-4.87,20.32c-10.54,0-19.12-4.4-19.12-9.82,0-3.65,3.94-6.98,10.28-8.7,2.71-.73,5.77-1.12,8.84-1.12,1.6,0,3.2,.1,4.74,.31,8.47,1.12,14.38,5.03,14.38,9.51,0,5.41-8.58,9.82-19.12,9.82Z"/><path d="M26.43,17.3c0-4.45-5.92-8.08-13.19-8.08h0c-2.65,0-5.2,.47-7.38,1.37C2.22,12.1,.04,14.6,.04,17.3,.04,21.76,5.96,25.38,13.24,25.38s13.19-3.62,13.19-8.08Zm-25.39,0c0-2.28,1.94-4.44,5.19-5.78,2.06-.85,4.48-1.3,7-1.3h0c6.72,0,12.19,3.17,12.19,7.08s-5.47,7.08-12.19,7.08S1.04,21.21,1.04,17.3Z"/><path d="M40.71,2.38c-.97-.14-1.96-.22-2.97-.22h0c-6.46,0-11.52,2.87-11.52,6.54s5.06,6.54,11.52,6.54,11.52-2.87,11.52-6.54c0-2.97-3.51-5.58-8.54-6.33Zm-2.98,11.87c-5.7,0-10.52-2.54-10.52-5.54s4.82-5.54,10.52-5.54h0c.95,0,1.9,.07,2.82,.21,4.53,.68,7.69,2.87,7.69,5.34,0,3-4.82,5.54-10.52,5.54Z"/><path d="M37.66,34.55c-.28,0-.5,.22-.5,.5,0,2.66-5.26,4.9-11.49,4.9-5.34,0-10.07-1.64-11.24-3.9-.13-.25-.43-.34-.67-.21-.25,.13-.34,.43-.21,.67,1.35,2.62,6.34,4.44,12.12,4.44,7,0,12.49-2.59,12.49-5.9,0-.28-.22-.5-.5-.5Z"/><path d="M42.83,8.71c-.96,.91-2.78,1.47-4.75,1.47h0c-2.92,0-5.38-1.25-5.38-2.73,0-.28-.22-.5-.5-.5s-.5,.22-.5,.5c0,2.09,2.8,3.73,6.38,3.73h0c2.25,0,4.28-.65,5.44-1.75,.2-.19,.21-.51,.02-.71-.19-.2-.51-.21-.71-.02Z"/><path d="M20.5,18.01c.2-.19,.22-.5,.03-.71-.19-.2-.5-.22-.71-.03-1.34,1.23-3.86,2-6.58,2-2.39,0-4.6-.57-6.04-1.57-.23-.16-.54-.1-.7,.13-.16,.23-.1,.54,.13,.7,1.61,1.11,4.02,1.75,6.61,1.75,3.01,0,5.72-.84,7.26-2.26Z"/><path d="M7.91,14.38s.1,0,.15-.02c1.75-.53,3.63-.8,5.61-.8h0c.28,0,.5-.22,.5-.5s-.22-.53-.51-.5c-2.08,0-4.06,.28-5.9,.85-.26,.08-.41,.36-.33,.62,.07,.22,.26,.35,.48,.35Z"/><path d="M17.82,32.56s.09,0,.13-.02c2.24-.61,4.66-.97,7.18-1.08,.28-.01,.49-.25,.48-.52s-.25-.5-.52-.48c-2.59,.12-5.08,.49-7.4,1.12-.27,.07-.42,.35-.35,.61,.06,.22,.26,.37,.48,.37Z"/><path d="M35.14,6.35h1.52c.28,0,.5-.22,.5-.5s-.22-.5-.5-.5h-1.52c-.28,0-.5,.22-.5,.5s.22,.5,.5,.5Z"/></svg>

<svg id="b34a0054-5b24-4bfb-bbfc-6b174fd86ebc" data-name="ICONS" xmlns="http://www.w3.org/2000/svg" viewBox="0 0 50 50"><path d="M32.16,28.52a35.27,35.27,0,0,0-4.74-.31,34.6,34.6,0,0,0-8.85,1.12C12.23,31.05,8.29,34.38,8.29,38c0,5.41,8.58,9.81,19.13,9.81S46.54,43.44,46.54,38C46.54,33.55,40.63,29.64,32.16,28.52Z" fill="#fdd600"/><path d="M15,12h0a18.72,18.72,0,0,0-7,1.29c-3.25,1.34-5.19,3.5-5.19,5.78,0,3.91,5.47,7.08,12.2,7.08S27.18,23,27.18,19.05,21.71,12,15,12Z" fill="#fdd600"/><path d="M42.27,5.11a20.24,20.24,0,0,0-2.82-.2h0c-5.7,0-10.52,2.54-10.52,5.54S33.74,16,39.44,16,50,13.46,50,10.45C50,8,46.79,5.79,42.27,5.11Z" fill="#fdd600"/><path d="M30.54,25.78a37.12,37.12,0,0,0-4.87-.32,34.82,34.82,0,0,0-9.11,1.16c-6.79,1.84-11,5.54-11,9.66,0,6,9,10.81,20.13,10.81s20.12-4.85,20.12-10.81C45.79,31.28,39.52,27,30.54,25.78ZM25.67,46.09c-10.55,0-19.13-4.4-19.13-9.81,0-3.65,3.94-7,10.28-8.7a34.6,34.6,0,0,1,8.85-1.12,35.27,35.27,0,0,1,4.74.31c8.47,1.12,14.38,5,14.38,9.51C44.79,41.69,36.21,46.09,25.67,46.09Z" fill="#231f20"/><path d="M26.43,17.3c0-4.45-5.92-8.07-13.19-8.07h0A19.55,19.55,0,0,0,5.85,10.6C2.22,12.1,0,14.6,0,17.3c0,4.46,5.92,8.08,13.2,8.08S26.43,21.76,26.43,17.3ZM1,17.3C1,15,3,12.86,6.23,11.52a18.72,18.72,0,0,1,7-1.29h0c6.72,0,12.19,3.17,12.19,7.07S20,24.38,13.24,24.38,1,21.21,1,17.3Z" fill="#231f20"/><path d="M40.71,2.38a19.5,19.5,0,0,0-3-.22h0C31.27,2.16,26.21,5,26.21,8.7s5.06,6.55,11.52,6.55S49.25,12.37,49.25,8.7C49.25,5.73,45.74,3.13,40.71,2.38Zm-3,11.87c-5.7,0-10.52-2.54-10.52-5.55S32,3.16,37.73,3.16h0a20.24,20.24,0,0,1,2.82.2c4.53.68,7.69,2.88,7.69,5.34C48.25,11.71,43.43,14.25,37.73,14.25Z" fill="#231f20"/><path d="M37.66,34.55a.5.5,0,0,0-.5.5c0,2.66-5.26,4.9-11.49,4.9-5.34,0-10.07-1.64-11.24-3.9a.5.5,0,0,0-.67-.22.51.51,0,0,0-.22.68C14.9,39.12,19.88,41,25.67,41c7,0,12.49-2.59,12.49-5.9A.5.5,0,0,0,37.66,34.55Z" fill="#231f20"/><path d="M42.83,8.71a7.19,7.19,0,0,1-4.74,1.48h0c-2.91,0-5.38-1.25-5.38-2.73a.5.5,0,0,0-1,0c0,2.09,2.8,3.73,6.38,3.73h0a8.1,8.1,0,0,0,5.43-1.75.5.5,0,0,0-.69-.73Z" fill="#231f20"/><path d="M20.5,18a.5.5,0,1,0-.68-.73c-1.34,1.23-3.86,2-6.58,2a10.89,10.89,0,0,1-6-1.57.51.51,0,0,0-.7.13.5.5,0,0,0,.13.7,12,12,0,0,0,6.61,1.74C16.24,20.27,19,19.43,20.5,18Z" fill="#231f20"/><path d="M7.91,14.38a.39.39,0,0,0,.15,0,19.26,19.26,0,0,1,5.61-.8h0a.5.5,0,0,0,.5-.5.48.48,0,0,0-.5-.5,20,20,0,0,0-5.91.85.5.5,0,0,0-.33.62A.49.49,0,0,0,7.91,14.38Z" fill="#231f20"/><path d="M17.82,32.56l.13,0a33.48,33.48,0,0,1,7.18-1.09.5.5,0,1,0-.05-1,34.19,34.19,0,0,0-7.39,1.11.5.5,0,0,0,.13,1Z" fill="#231f20"/><path d="M35.14,6.35h1.52a.51.51,0,0,0,.5-.5.5.5,0,0,0-.5-.5H35.14a.5.5,0,0,0-.5.5A.51.51,0,0,0,35.14,6.35Z" fill="#231f20"/></svg>
